packages/icon/src/svg/search.icon.svg

<svg viewBox="0 0 24 24" xmlns="http://www.w3.org/2000/svg"><path d="M21.707 20.294L16.314 14.9C17.403 13.504 18 11.799 18 10c0-2.137-.833-4.144-2.344-5.656C14.145 2.832 12.137 2 10 2c-2.137 0-4.146.832-5.656 2.344C2.832 5.856 2 7.863 2 10c0 2.137.832 4.146 2.344 5.656C5.854 17.168 7.863 18 10 18c1.799 0 3.504-.596 4.9-1.685l5.393 5.393 1.414-1.414zM10 16c-1.603 0-3.109-.624-4.242-1.757C4.624 13.11 4 11.603 4 10c0-1.602.624-3.109 1.758-4.242C6.891 4.624 8.397 4 10 4c1.602 0 3.109.624 4.242 1.758C15.376 6.891 16 8.398 16 10c0 1.603-.624 3.11-1.758 4.243C13.109 15.376 11.602 16 10 16z" /></svg>

<?xml version="1.0" encoding="UTF-8"?>
<svg width="24px" height="24px" viewBox="0 0 24 24" version="1.1" xmlns="http://www.w3.org/2000/svg" xmlns:xlink="http://www.w3.org/1999/xlink">
    <!-- Generator: Sketch 46.1 (44463) - http://www.bohemiancoding.com/sketch -->
    <title>Icon/search.icon</title>
    <desc>Created with Sketch.</desc>
    <defs>
        <path d="M21.707,20.294 L16.314,14.9 C17.403,13.504 18,11.799 18,10 C18,7.863 17.167,5.856 15.656,4.344 C14.145,2.832 12.137,2 10,2 C7.863,2 5.854,2.832 4.344,4.344 C2.832,5.856 2,7.863 2,10 C2,12.137 2.832,14.146 4.344,15.656 C5.854,17.168 7.863,18 10,18 C11.799,18 13.504,17.404 14.9,16.315 L20.293,21.708 L21.707,20.294 Z M10,16 C8.397,16 6.891,15.376 5.758,14.243 C4.624,13.11 4,11.603 4,10 C4,8.398 4.624,6.891 5.758,5.758 C6.891,4.624 8.397,4 10,4 C11.602,4 13.109,4.624 14.242,5.758 C15.376,6.891 16,8.398 16,10 C16,11.603 15.376,13.11 14.242,14.243 C13.109,15.376 11.602,16 10,16 Z" id="path-1"></path>
    </defs>
    <g id="Symbols" stroke="none" stroke-width="1" fill="none" fill-rule="evenodd">
        <g id="Icon/search">
            <mask id="mask-2" fill="white">
                <use xlink:href="#path-1"></use>
            </mask>
            <use id="Shape" fill="#000000" fill-rule="nonzero" xlink:href="#path-1"></use>
            <g id="Color/Neutral/White" mask="url(#mask-2)" fill="#FFFFFF">
                <rect id="222222-Fill" x="0" y="0" width="24" height="24"></rect>
            </g>
        </g>
    </g>
</svg>
